X:0569
M:6/8
L:1/8
Q:3/8=120
K:A
  c3     {e}(dcd)     | e2e        e3       | a2e          a2e      |{e}(d2c)       B2    \
 [c3C3]     [d2D2][eE]|[f2F2][fF] [f3F3]    |[B3B,3]      [c2C2][dD]|   [e2E2][eE] [e3E3]|\
 [e2E2][cC] [a2A2][aA]|[e2E2][cC] [a2A2][aA]|[eE][fF][eE] [d2D2][cC]|   [c3C3]     [B2B,2]
z|c3         de2      | f2f        f3       | B3           c2d      |    e2e        e3   |\
  e2c        a2a      | e2c        a2a      | efe       {e}d2c      |    c3      [1 B2z :|\
                                                                                 [2 B2  ::
c|dcd        Bcd      | cBc        A2c      | B2A          B2c      |    B2B        B2
c|dcd        Bcd      | cBc        Aec      | B2A          B2c      |    A2A        A2  :|

